data/icons/hicolor/places/scalable/nemo-bookmark-not-found-symbolic.svg

<?xml version="1.0" encoding="UTF-8" standalone="no"?>
<!-- Created with Inkscape (http://www.inkscape.org/) -->

<svg
   xmlns:osb="http://www.openswatchbook.org/uri/2009/osb"
   xmlns:dc="http://purl.org/dc/elements/1.1/"
   xmlns:cc="http://creativecommons.org/ns#"
   xmlns:rdf="http://www.w3.org/1999/02/22-rdf-syntax-ns#"
   xmlns:svg="http://www.w3.org/2000/svg"
   xmlns="http://www.w3.org/2000/svg"
   xmlns:sodipodi="http://sodipodi.sourceforge.net/DTD/sodipodi-0.dtd"
   xmlns:inkscape="http://www.inkscape.org/namespaces/inkscape"
   width="16"
   height="16"
   id="svg2"
   sodipodi:version="0.32"
   inkscape:version="0.92.3 (2405546, 2018-03-11)"
   version="1.0"
   sodipodi:docname="nemo-bookmark-not-found-symbolic.svg"
   inkscape:output_extension="org.inkscape.output.svg.inkscape"
   inkscape:export-filename="/home/matt/.icons/Sirocco/scalable/mimetypes/text-plain.png"
   inkscape:export-xdpi="90"
   inkscape:export-ydpi="90"
   sodipodi:modified="true"
   style="display:inline">
  <sodipodi:namedview
     id="base"
     pagecolor="#ffffff"
     bordercolor="#666666"
     borderopacity="1.0"
     inkscape:pageopacity="0.0"
     inkscape:pageshadow="2"
     inkscape:zoom="22.627418"
     inkscape:cx="-2.1173884"
     inkscape:cy="9.0692695"
     inkscape:document-units="px"
     inkscape:current-layer="layer1"
     width="128px"
     height="128px"
     inkscape:showpageshadow="false"
     inkscape:window-width="1280"
     inkscape:window-height="747"
     inkscape:window-x="0"
     inkscape:window-y="0"
     showguides="true"
     inkscape:guide-bbox="true"
     showgrid="true"
     inkscape:window-maximized="1"
     inkscape:snap-bbox="true"
     inkscape:bbox-paths="true"
     inkscape:bbox-nodes="true"
     inkscape:snap-bbox-edge-midpoints="true"
     inkscape:snap-bbox-midpoints="true">
    <sodipodi:guide
       id="guide2226"
       position="32.637397,117.99844"
       orientation="horizontal"
       inkscape:locked="false" />
    <sodipodi:guide
       id="guide2230"
       position="110,57.402344"
       orientation="vertical"
       inkscape:locked="false" />
    <sodipodi:guide
       id="guide2232"
       position="33.760911"
       orientation="horizontal"
       inkscape:locked="false" />
    <sodipodi:guide
       id="guide2231"
       position="46.774696"
       orientation="horizontal"
       inkscape:locked="false" />
    <inkscape:grid
       enabled="true"
       visible="true"
       id="grid3231"
       type="xygrid" />
    <sodipodi:guide
       orientation="1,0"
       position="100,67.625"
       id="guide2713"
       inkscape:locked="false" />
  </sodipodi:namedview>
  <defs
     id="defs4">
    <linearGradient
       osb:paint="solid"
       id="linearGradient5606">
      <stop
         style="stop-color:#000000;stop-opacity:1;"
         offset="0"
         id="stop5608" />
    </linearGradient>
    <filter
       id="filter7554"
       color-interpolation-filters="sRGB"
       inkscape:collect="always">
      <feBlend
         mode="darken"
         in2="BackgroundImage"
         id="feBlend7556"
         inkscape:collect="always" />
    </filter>
  </defs>
  <metadata
     id="metadata7">
    <rdf:RDF>
      <cc:Work
         rdf:about="">
        <dc:format>image/svg+xml</dc:format>
        <dc:type
           rdf:resource="http://purl.org/dc/dcmitype/StillImage" />
        <dc:title />
      </cc:Work>
    </rdf:RDF>
  </metadata>
  <g
     style="display:inline"
     inkscape:label="Calque 1"
     id="layer1"
     inkscape:groupmode="layer">
    <path
       style="display:inline;fill:#bebebe;fill-opacity:1;stroke:none"
       d="M 2,1 C 1.446,1 1.5540001,2 1,2 L 1,2 1,3 15,3 C 15,2.446 14.554,2 14,2 L 7,2 C 7,1.446 6.554,1 6,1 Z"
       id="path3028"
       inkscape:connector-curvature="0"
       sodipodi:nodetypes="sscccscss" />
    <path
       style="display:inline;fill:#bebebe;fill-opacity:1;stroke:none"
       d="M 1.5 4 C 0.669 4 0 4.6192276 0 5.3886719 L 0 12.611328 C 0 13.380773 0.669 14 1.5 14 L 7.9785156 14 L 11.349609 7.75 C 11.655758 7.2242279 12.046281 6.9819762 12.449219 7.0039062 C 12.852156 7.0258585 13.270442 7.3014137 13.576172 7.796875 L 16 12.222656 L 16 5.3886719 C 16 4.6192276 15.331 4 14.5 4 L 1.5 4 z "
       id="path3040" />
    <g
       id="layer9"
       inkscape:label="status"
       style="display:inline"
       transform="translate(-840.0002,470.00693)" />
    <g
       id="layer10"
       inkscape:label="devices"
       style="display:inline;filter:url(#filter7554)"
       transform="translate(-840.0002,470.00693)" />
    <g
       id="layer1-1"
       inkscape:label="places"
       style="display:inline"
       transform="translate(-565,-181.99307)" />
    <g
       id="layer14"
       inkscape:label="mimetypes"
       style="display:inline"
       transform="translate(-840.0002,470.00693)" />
    <g
       id="layer15"
       inkscape:label="emblems"
       style="display:inline"
       transform="translate(-840.0002,470.00693)" />
    <g
       id="g71291"
       inkscape:label="emotes"
       style="display:inline"
       transform="translate(-840.0002,470.00693)" />
    <g
       id="layer2"
       inkscape:label="categories"
       style="display:inline"
       transform="translate(-599,3.006937)" />
    <g
       id="g6058"
       inkscape:label="apps"
       style="display:inline"
       transform="translate(-599,3.006937)" />
    <g
       id="layer12"
       inkscape:label="actions"
       style="display:inline"
       transform="translate(-840.0002,470.00693)" />
    <path
       style="color:#bebebe;display:inline;overflow:visible;visibility:visible;fill:#f57900;fill-opacity:1;fill-rule:nonzero;stroke:none;stroke-width:1.78124988;marker:none;enable-background:new"
       d="M 12.470703,9.4394531 C 12.239449,9.4268671 12.015549,9.5654358 11.839844,9.8671875 L 9.0878906,14.96875 C 8.8531299,15.392704 9.1102113,16 9.5703125,16 h 5.7890625 c 0.432019,0 0.838271,-0.510055 0.537109,-1.03125 L 13.117188,9.8945312 C 12.941724,9.6101754 12.701957,9.452052 12.470703,9.4394531 Z M 12,11 h 1 v 2 h -1 z m 0,3 h 1 v 1 h -1 z"
       id="path18112"
       class="warning"
       inkscape:connector-curvature="0" />
  </g>
</svg>

<?xml version="1.0" encoding="UTF-8" standalone="no"?>
<!-- Created with Inkscape (http://www.inkscape.org/) -->

<svg
   xmlns:osb="http://www.openswatchbook.org/uri/2009/osb"
   xmlns:dc="http://purl.org/dc/elements/1.1/"
   xmlns:cc="http://creativecommons.org/ns#"
   xmlns:rdf="http://www.w3.org/1999/02/22-rdf-syntax-ns#"
   xmlns:svg="http://www.w3.org/2000/svg"
   xmlns="http://www.w3.org/2000/svg"
   xmlns:sodipodi="http://sodipodi.sourceforge.net/DTD/sodipodi-0.dtd"
   xmlns:inkscape="http://www.inkscape.org/namespaces/inkscape"
   width="16"
   height="16"
   id="svg2"
   sodipodi:version="0.32"
   inkscape:version="0.92.3 (2405546, 2018-03-11)"
   version="1.0"
   sodipodi:docname="nemo-bookmark-not-found-symbolic.svg"
   inkscape:output_extension="org.inkscape.output.svg.inkscape"
   inkscape:export-filename="/home/matt/.icons/Sirocco/scalable/mimetypes/text-plain.png"
   inkscape:export-xdpi="90"
   inkscape:export-ydpi="90"
   sodipodi:modified="true"
   style="display:inline">
  <sodipodi:namedview
     id="base"
     pagecolor="#ffffff"
     bordercolor="#666666"
     borderopacity="1.0"
     inkscape:pageopacity="0.0"
     inkscape:pageshadow="2"
     inkscape:zoom="22.627418"
     inkscape:cx="13.43896"
     inkscape:cy="9.4228229"
     inkscape:document-units="px"
     inkscape:current-layer="layer1"
     width="128px"
     height="128px"
     inkscape:showpageshadow="false"
     inkscape:window-width="1920"
     inkscape:window-height="998"
     inkscape:window-x="0"
     inkscape:window-y="27"
     showguides="true"
     inkscape:guide-bbox="true"
     showgrid="true"
     inkscape:window-maximized="1"
     inkscape:snap-bbox="true"
     inkscape:bbox-paths="true"
     inkscape:bbox-nodes="true"
     inkscape:snap-bbox-edge-midpoints="true"
     inkscape:snap-bbox-midpoints="true">
    <sodipodi:guide
       id="guide2226"
       position="32.637397,117.99844"
       orientation="horizontal"
       inkscape:locked="false" />
    <sodipodi:guide
       id="guide2230"
       position="110,57.402344"
       orientation="vertical"
       inkscape:locked="false" />
    <sodipodi:guide
       id="guide2232"
       position="33.760911"
       orientation="horizontal"
       inkscape:locked="false" />
    <sodipodi:guide
       id="guide2231"
       position="46.774696"
       orientation="horizontal"
       inkscape:locked="false" />
    <inkscape:grid
       enabled="true"
       visible="true"
       id="grid3231"
       type="xygrid" />
    <sodipodi:guide
       orientation="1,0"
       position="100,67.625"
       id="guide2713"
       inkscape:locked="false" />
  </sodipodi:namedview>
  <defs
     id="defs4">
    <linearGradient
       osb:paint="solid"
       id="linearGradient5606">
      <stop
         style="stop-color:#000000;stop-opacity:1;"
         offset="0"
         id="stop5608" />
    </linearGradient>
    <filter
       id="filter7554"
       color-interpolation-filters="sRGB"
       inkscape:collect="always">
      <feBlend
         mode="darken"
         in2="BackgroundImage"
         id="feBlend7556"
         inkscape:collect="always" />
    </filter>
  </defs>
  <metadata
     id="metadata7">
    <rdf:RDF>
      <cc:Work
         rdf:about="">
        <dc:format>image/svg+xml</dc:format>
        <dc:type
           rdf:resource="http://purl.org/dc/dcmitype/StillImage" />
        <dc:title />
      </cc:Work>
    </rdf:RDF>
  </metadata>
  <g
     style="display:inline"
     inkscape:label="Calque 1"
     id="layer1"
     inkscape:groupmode="layer">
    <path
       style="display:inline;fill:#bebebe;fill-opacity:1;stroke:none"
       d="M 2,1 C 1.446,1 1.5540001,2 1,2 L 1,2 1,3 15,3 C 15,2.446 14.554,2 14,2 L 7,2 C 7,1.446 6.554,1 6,1 Z"
       id="path3028"
       inkscape:connector-curvature="0"
       sodipodi:nodetypes="sscccscss" />
    <path
       style="display:inline;fill:#bebebe;fill-opacity:1;stroke:none"
       d="M 1.5 4 C 0.669 4 0 4.6192276 0 5.3886719 L 0 12.611328 C 0 13.380773 0.669 14 1.5 14 L 7.9785156 14 L 11.349609 7.75 C 11.655758 7.2242279 12.046281 6.9819762 12.449219 7.0039062 C 12.852156 7.0258585 13.270442 7.3014137 13.576172 7.796875 L 16 12.222656 L 16 5.3886719 C 16 4.6192276 15.331 4 14.5 4 L 1.5 4 z "
       id="path3040" />
    <g
       id="layer9"
       inkscape:label="status"
       style="display:inline"
       transform="translate(-840.0002,470.00693)" />
    <g
       id="layer10"
       inkscape:label="devices"
       style="display:inline;filter:url(#filter7554)"
       transform="translate(-840.0002,470.00693)" />
    <g
       id="layer1-1"
       inkscape:label="places"
       style="display:inline"
       transform="translate(-565,-181.99307)" />
    <g
       id="layer14"
       inkscape:label="mimetypes"
       style="display:inline"
       transform="translate(-840.0002,470.00693)" />
    <g
       id="layer15"
       inkscape:label="emblems"
       style="display:inline"
       transform="translate(-840.0002,470.00693)" />
    <g
       id="g71291"
       inkscape:label="emotes"
       style="display:inline"
       transform="translate(-840.0002,470.00693)" />
    <g
       id="layer2"
       inkscape:label="categories"
       style="display:inline"
       transform="translate(-599,3.006937)" />
    <g
       id="g6058"
       inkscape:label="apps"
       style="display:inline"
       transform="translate(-599,3.006937)" />
    <g
       id="layer12"
       inkscape:label="actions"
       style="display:inline"
       transform="translate(-840.0002,470.00693)" />
    <path
       style="color:#bebebe;display:inline;overflow:visible;visibility:visible;fill:#bebebe;fill-opacity:1;fill-rule:nonzero;stroke:none;stroke-width:1.78124988;marker:none;enable-background:new"
       d="M 12.470703 9.4394531 C 12.239449 9.4268671 12.015549 9.5654358 11.839844 9.8671875 L 9.0878906 14.96875 C 8.8531299 15.392704 9.1102113 16 9.5703125 16 L 15.359375 16 C 15.791394 16 16.197646 15.489945 15.896484 14.96875 L 13.117188 9.8945312 C 12.941724 9.6101754 12.701957 9.452052 12.470703 9.4394531 z M 12 11 L 13 11 L 13 13 L 12 13 L 12 11 z M 12 14 L 13 14 L 13 15 L 12 15 L 12 14 z "
       id="path18112" />
  </g>
</svg>
